public/img/icon-testnet-white.svg

<?xml version="1.0" standalone="no"?><!DOCTYPE svg PUBLIC "-//W3C//DTD SVG 1.1//EN" "http://www.w3.org/Graphics/SVG/1.1/DTD/svg11.dtd"><svg width="100%" height="100%" viewBox="0 0 19 18" version="1.1" xmlns="http://www.w3.org/2000/svg" xmlns:xlink="http://www.w3.org/1999/xlink" xml:space="preserve" style="fill-rule:evenodd;clip-rule:evenodd;stroke-linejoin:round;stroke-miterlimit:1.41421;"><path id="flask" d="M13.358,7.26c0.205,0.205 0.422,0.43 0.651,0.677c0.228,0.246 0.562,0.615 1.002,1.107c0.439,0.492 0.843,0.99 1.213,1.494c0.369,0.504 0.735,1.042 1.098,1.613c0.364,0.571 0.651,1.144 0.862,1.718c0.211,0.574 0.316,1.093 0.316,1.556c0,0.709 -0.252,1.315 -0.756,1.819c-0.504,0.504 -1.11,0.756 -1.819,0.756l-12.85,0c-0.709,0 -1.315,-0.252 -1.819,-0.756c-0.504,-0.504 -0.756,-1.11 -0.756,-1.819c0,-0.463 0.105,-0.982 0.316,-1.556c0.211,-0.574 0.498,-1.147 0.862,-1.718c0.363,-0.571 0.729,-1.109 1.098,-1.613c0.37,-0.504 0.774,-1.002 1.213,-1.494c0.44,-0.492 0.774,-0.861 1.002,-1.107c0.229,-0.247 0.446,-0.472 0.651,-0.677l0,-5.335l-0.967,0c-0.088,0 -0.163,-0.031 -0.224,-0.092c-0.062,-0.062 -0.093,-0.137 -0.093,-0.225l0,-1.292c0,-0.087 0.031,-0.162 0.093,-0.224c0.061,-0.061 0.136,-0.092 0.224,-0.092l9.65,0c0.088,0 0.163,0.031 0.224,0.092c0.062,0.062 0.093,0.137 0.093,0.224l0,1.292c0,0.088 -0.031,0.163 -0.093,0.225c-0.061,0.061 -0.136,0.092 -0.224,0.092l-0.967,0l0,5.335ZM5,1.283l9,0l0,-0.641l-9,0l0,0.641ZM12.717,1.925l-6.434,0l0,2.215c0.422,-0.129 0.822,-0.214 1.2,-0.255c0.378,-0.041 0.685,-0.047 0.923,-0.018c0.237,0.029 0.457,0.081 0.659,0.154c0.202,0.073 0.343,0.135 0.422,0.185c0.079,0.049 0.145,0.098 0.198,0.145c0.052,0.041 0.121,0.086 0.206,0.136c0.085,0.05 0.233,0.114 0.444,0.193c0.211,0.079 0.428,0.131 0.65,0.154c0.223,0.023 0.493,0.001 0.809,-0.066c0.316,-0.067 0.624,-0.192 0.923,-0.373l0,-2.47ZM15.925,17.358c0.533,0 0.989,-0.189 1.367,-0.566c0.377,-0.378 0.566,-0.834 0.566,-1.367c0,-0.528 -0.17,-1.152 -0.509,-1.872c-0.34,-0.721 -0.734,-1.392 -1.182,-2.013c-0.449,-0.621 -0.939,-1.245 -1.473,-1.872c-0.533,-0.627 -0.947,-1.094 -1.243,-1.402c-0.296,-0.308 -0.509,-0.52 -0.638,-0.637c-0.064,-0.065 -0.096,-0.144 -0.096,-0.237l0,-2.268c-0.475,0.229 -0.964,0.343 -1.468,0.343c-0.346,0 -0.683,-0.054 -1.011,-0.163c-0.328,-0.108 -0.559,-0.203 -0.694,-0.285c-0.135,-0.082 -0.223,-0.144 -0.264,-0.185c-0.047,-0.035 -0.088,-0.064 -0.123,-0.088c-0.035,-0.023 -0.145,-0.067 -0.329,-0.132c-0.185,-0.064 -0.378,-0.104 -0.58,-0.118c-0.203,-0.015 -0.481,0 -0.835,0.044c-0.355,0.043 -0.731,0.133 -1.13,0.268l0,2.584c0,0.093 -0.032,0.172 -0.096,0.237c-0.129,0.117 -0.342,0.329 -0.638,0.637c-0.296,0.308 -0.71,0.775 -1.243,1.402c-0.534,0.627 -1.024,1.251 -1.473,1.872c-0.448,0.621 -0.842,1.292 -1.182,2.013c-0.339,0.72 -0.509,1.344 -0.509,1.872c0,0.533 0.189,0.989 0.566,1.367c0.378,0.377 0.834,0.566 1.367,0.566l12.85,0ZM9.825,6.425c0.533,0 0.987,0.189 1.362,0.567c0.376,0.378 0.563,0.833 0.563,1.366c0,0.534 -0.187,0.988 -0.563,1.363c-0.375,0.375 -0.829,0.562 -1.362,0.562c-0.533,0 -0.989,-0.187 -1.367,-0.562c-0.377,-0.375 -0.566,-0.829 -0.566,-1.363c0,-0.533 0.189,-0.988 0.566,-1.366c0.378,-0.378 0.834,-0.567 1.367,-0.567ZM9.825,9.642c0.352,0 0.654,-0.125 0.905,-0.374c0.252,-0.249 0.378,-0.552 0.378,-0.91c0,-0.357 -0.126,-0.662 -0.378,-0.914c-0.251,-0.252 -0.553,-0.378 -0.905,-0.378c-0.357,0 -0.662,0.126 -0.914,0.378c-0.252,0.252 -0.378,0.557 -0.378,0.914c0,0.358 0.126,0.661 0.378,0.91c0.252,0.249 0.557,0.374 0.914,0.374ZM7.892,10.925c0.357,0 0.66,0.126 0.909,0.378c0.249,0.252 0.374,0.556 0.374,0.914c0,0.351 -0.125,0.653 -0.374,0.905c-0.249,0.252 -0.552,0.378 -0.909,0.378c-0.358,0 -0.661,-0.126 -0.91,-0.378c-0.249,-0.252 -0.374,-0.554 -0.374,-0.905c0,-0.358 0.125,-0.662 0.374,-0.914c0.249,-0.252 0.552,-0.378 0.91,-0.378ZM7.892,12.858c0.181,0 0.334,-0.063 0.457,-0.189c0.123,-0.126 0.184,-0.276 0.184,-0.452c0,-0.182 -0.061,-0.336 -0.184,-0.462c-0.123,-0.126 -0.276,-0.189 -0.457,-0.189c-0.176,0 -0.327,0.063 -0.453,0.189c-0.126,0.126 -0.189,0.28 -0.189,0.462c0,0.176 0.063,0.326 0.189,0.452c0.126,0.126 0.277,0.189 0.453,0.189ZM10.783,13.5c0.27,0 0.498,0.094 0.686,0.281c0.187,0.188 0.281,0.416 0.281,0.686c0,0.263 -0.094,0.489 -0.281,0.677c-0.188,0.187 -0.416,0.281 -0.686,0.281c-0.263,0 -0.489,-0.094 -0.677,-0.281c-0.187,-0.188 -0.281,-0.414 -0.281,-0.677c0,-0.27 0.094,-0.498 0.281,-0.686c0.188,-0.187 0.414,-0.281 0.677,-0.281ZM10.783,14.783c0.088,0 0.164,-0.031 0.229,-0.092c0.064,-0.062 0.096,-0.136 0.096,-0.224c0,-0.094 -0.032,-0.172 -0.096,-0.233c-0.065,-0.062 -0.141,-0.092 -0.229,-0.092c-0.088,0 -0.162,0.03 -0.224,0.092c-0.061,0.061 -0.092,0.139 -0.092,0.233c0,0.088 0.031,0.162 0.092,0.224c0.062,0.061 0.136,0.092 0.224,0.092Z" style="fill:#fff;"/></svg>

<?xml version="1.0" standalone="no"?>
<!DOCTYPE svg PUBLIC "-//W3C//DTD SVG 1.1//EN" "http://www.w3.org/Graphics/SVG/1.1/DTD/svg11.dtd">
<svg width="100%" height="100%" viewBox="0 0 19 18" version="1.1" xmlns="http://www.w3.org/2000/svg" xmlns:xlink="http://www.w3.org/1999/xlink" xml:space="preserve" style="fill-rule:evenodd;clip-rule:evenodd;stroke-linejoin:round;stroke-miterlimit:1.41421;">
    <path id="flask" d="M13.358,7.26C13.563,7.465 13.78,7.69 14.009,7.937C14.237,8.183 14.571,8.552 15.011,9.044C15.45,9.536 15.854,10.034 16.224,10.538C16.593,11.042 16.959,11.58 17.322,12.151C17.686,12.722 17.973,13.295 18.184,13.869C18.395,14.443 18.5,14.962 18.5,15.425C18.5,16.134 18.248,16.74 17.744,17.244C17.24,17.748 16.634,18 15.925,18L3.075,18C2.366,18 1.76,17.748 1.256,17.244C0.752,16.74 0.5,16.134 0.5,15.425C0.5,14.962 0.605,14.443 0.816,13.869C1.027,13.295 1.314,12.722 1.678,12.151C2.041,11.58 2.407,11.042 2.776,10.538C3.146,10.034 3.55,9.536 3.989,9.044C4.429,8.552 4.763,8.183 4.991,7.937C5.22,7.69 5.437,7.465 5.642,7.26L5.642,1.925L4.675,1.925C4.587,1.925 4.512,1.894 4.451,1.833C4.389,1.771 4.358,1.696 4.358,1.608L4.358,0.316C4.358,0.229 4.389,0.154 4.451,0.092C4.512,0.031 4.587,0 4.675,0L14.325,0C14.413,0 14.488,0.031 14.549,0.092C14.611,0.154 14.642,0.229 14.642,0.316L14.642,1.608C14.642,1.696 14.611,1.771 14.549,1.833C14.488,1.894 14.413,1.925 14.325,1.925L13.358,1.925L13.358,7.26ZM5,1.283L14,1.283L14,0.642L5,0.642L5,1.283ZM12.717,1.925L6.283,1.925L6.283,4.14C6.705,4.011 7.105,3.926 7.483,3.885C7.861,3.844 8.168,3.838 8.406,3.867C8.643,3.896 8.863,3.948 9.065,4.021C9.267,4.094 9.408,4.156 9.487,4.206C9.566,4.255 9.632,4.304 9.685,4.351C9.737,4.392 9.806,4.437 9.891,4.487C9.976,4.537 10.124,4.601 10.335,4.68C10.546,4.759 10.763,4.811 10.985,4.834C11.208,4.857 11.478,4.835 11.794,4.768C12.11,4.701 12.418,4.576 12.717,4.395L12.717,1.925L12.717,1.925ZM15.925,17.358C16.458,17.358 16.914,17.169 17.292,16.792C17.669,16.414 17.858,15.958 17.858,15.425C17.858,14.897 17.688,14.273 17.349,13.553C17.009,12.832 16.615,12.161 16.167,11.54C15.718,10.919 15.228,10.295 14.694,9.668C14.161,9.041 13.747,8.574 13.451,8.266C13.155,7.958 12.942,7.746 12.813,7.629C12.749,7.564 12.717,7.485 12.717,7.392L12.717,5.124C12.242,5.353 11.753,5.467 11.249,5.467C10.903,5.467 10.566,5.413 10.238,5.304C9.91,5.196 9.679,5.101 9.544,5.019C9.409,4.937 9.321,4.875 9.28,4.834C9.233,4.799 9.192,4.77 9.157,4.746C9.122,4.723 9.012,4.679 8.828,4.614C8.643,4.55 8.45,4.51 8.248,4.496C8.045,4.481 7.767,4.496 7.413,4.54C7.058,4.583 6.682,4.673 6.283,4.808L6.283,7.392C6.283,7.485 6.251,7.564 6.187,7.629C6.058,7.746 5.845,7.958 5.549,8.266C5.253,8.574 4.839,9.041 4.306,9.668C3.772,10.295 3.282,10.919 2.833,11.54C2.385,12.161 1.991,12.832 1.651,13.553C1.312,14.273 1.142,14.897 1.142,15.425C1.142,15.958 1.331,16.414 1.708,16.792C2.086,17.169 2.542,17.358 3.075,17.358L15.925,17.358ZM9.825,6.425C10.358,6.425 10.812,6.614 11.187,6.992C11.563,7.37 11.75,7.825 11.75,8.358C11.75,8.892 11.563,9.346 11.187,9.721C10.812,10.096 10.358,10.283 9.825,10.283C9.292,10.283 8.836,10.096 8.458,9.721C8.081,9.346 7.892,8.892 7.892,8.358C7.892,7.825 8.081,7.37 8.458,6.992C8.836,6.614 9.292,6.425 9.825,6.425L9.825,6.425ZM9.825,9.642C10.177,9.642 10.479,9.517 10.73,9.268C10.982,9.019 11.108,8.716 11.108,8.358C11.108,8.001 10.982,7.696 10.73,7.444C10.479,7.192 10.177,7.066 9.825,7.066C9.468,7.066 9.163,7.192 8.911,7.444C8.659,7.696 8.533,8.001 8.533,8.358C8.533,8.716 8.659,9.019 8.911,9.268C9.163,9.517 9.468,9.642 9.825,9.642ZM7.892,10.925C8.249,10.925 8.552,11.051 8.801,11.303C9.05,11.555 9.175,11.859 9.175,12.217C9.175,12.568 9.05,12.87 8.801,13.122C8.552,13.374 8.249,13.5 7.892,13.5C7.534,13.5 7.231,13.374 6.982,13.122C6.733,12.87 6.608,12.568 6.608,12.217C6.608,11.859 6.733,11.555 6.982,11.303C7.231,11.051 7.534,10.925 7.892,10.925ZM7.892,12.858C8.073,12.858 8.226,12.795 8.349,12.669C8.472,12.543 8.533,12.393 8.533,12.217C8.533,12.035 8.472,11.881 8.349,11.755C8.226,11.629 8.073,11.566 7.892,11.566C7.716,11.566 7.565,11.629 7.439,11.755C7.313,11.881 7.25,12.035 7.25,12.217C7.25,12.393 7.313,12.543 7.439,12.669C7.565,12.795 7.716,12.858 7.892,12.858ZM10.783,13.5C11.053,13.5 11.281,13.594 11.469,13.781C11.656,13.969 11.75,14.197 11.75,14.467C11.75,14.73 11.656,14.956 11.469,15.144C11.281,15.331 11.053,15.425 10.783,15.425C10.52,15.425 10.294,15.331 10.106,15.144C9.919,14.956 9.825,14.73 9.825,14.467C9.825,14.197 9.919,13.969 10.106,13.781C10.294,13.594 10.52,13.5 10.783,13.5ZM10.783,14.783C10.871,14.783 10.947,14.752 11.012,14.691C11.076,14.629 11.108,14.555 11.108,14.467C11.108,14.373 11.076,14.295 11.012,14.234C10.947,14.172 10.871,14.142 10.783,14.142C10.695,14.142 10.621,14.172 10.559,14.234C10.498,14.295 10.467,14.373 10.467,14.467C10.467,14.555 10.498,14.629 10.559,14.691C10.621,14.752 10.695,14.783 10.783,14.783Z" style="fill:white;"/>
</svg>
